TPFinal/static/svgs/solid/trademark.svg

<svg xmlns="http://www.w3.org/2000/svg" viewBox="0 0 640 512"><!--! Font Awesome Free 6.1.1 by @fontawesome - https://fontawesome.com License - https://fontawesome.com/license/free (Icons: CC BY 4.0, Fonts: SIL OFL 1.1, Code: MIT License) Copyright 2022 Fonticons, Inc. --><path d="M618.1 97.67c-13.02-4.375-27.45 .1562-35.72 11.16L464 266.7l-118.4-157.8c-8.266-11.03-22.64-15.56-35.72-11.16C296.8 102 288 114.2 288 128v256c0 17.69 14.33 32 32 32s32-14.31 32-32v-160l86.41 115.2c12.06 16.12 39.13 16.12 51.19 0L576 224v160c0 17.69 14.33 32 32 32s32-14.31 32-32v-256C640 114.2 631.2 102 618.1 97.67zM224 96.01H32c-17.67 0-32 14.31-32 32s14.33 32 32 32h64v223.1c0 17.69 14.33 31.99 32 31.99s32-14.3 32-31.99V160h64c17.67 0 32-14.31 32-32S241.7 96.01 224 96.01z"/></svg>

<svg xmlns="http://www.w3.org/2000/svg" viewBox="0 0 640 512"><!--! Font Awesome Free 6.2.1 by @fontawesome - https://fontawesome.com License - https://fontawesome.com/license/free (Icons: CC BY 4.0, Fonts: SIL OFL 1.1, Code: MIT License) Copyright 2022 Fonticons, Inc. --><path d="M345.6 108.8c-8.3-11-22.7-15.5-35.7-11.2S288 114.2 288 128V384c0 17.7 14.3 32 32 32s32-14.3 32-32V224l86.4 115.2c6 8.1 15.5 12.8 25.6 12.8s19.6-4.7 25.6-12.8L576 224V384c0 17.7 14.3 32 32 32s32-14.3 32-32V128c0-13.8-8.8-26-21.9-30.4s-27.5 .1-35.7 11.2L464 266.7 345.6 108.8zM0 128c0 17.7 14.3 32 32 32H96V384c0 17.7 14.3 32 32 32s32-14.3 32-32V160h64c17.7 0 32-14.3 32-32s-14.3-32-32-32H32C14.3 96 0 110.3 0 128z"/></svg>
